public/icon/svg/Draw.io.svg

<?xml version="1.0" encoding="UTF-8"?>
<svg width="1024px" height="1025px" viewBox="0 0 1024 1025" version="1.1" xmlns="http://www.w3.org/2000/svg" xmlns:xlink="http://www.w3.org/1999/xlink">
    <title>Drawio</title>
    <g id="ICON-新版方图标" stroke="none" stroke-width="1" fill="none" fill-rule="evenodd">
        <g id="Drawio" transform="translate(0, 0)" fill-rule="nonzero">
            <polygon id="路径" fill="#F08705" points="-1.40612668e-15 -2.18278728e-11 1024 -2.18281863e-11 1024 1025 0 1024"></polygon>
            <path d="M543.357294,262.116063 L653.833048,145.558648 L1024,515.41906 L1024,983.038482 C1024.0097,993.905123 1019.69623,1004.32949 1012.01055,1012.01337 C1004.32486,1019.69724 993.898042,1024.0097 983.028843,1024 L340.513569,1024 L143.522863,826.251022 L543.357294,262.116063 Z" id="路径" fill="#DF6C0C"></path>
            <path d="M849.720258,583.813059 L729.325179,583.813059 L617.080708,389.292309 L624.39067,389.292309 C635.25049,389.302022 645.668311,384.990595 653.347366,377.308548 C661.026421,369.626501 665.336169,359.204622 665.326459,348.340572 L665.326459,174.29569 C665.336169,163.431639 661.026421,153.00976 653.347366,145.327713 C645.668311,137.645666 635.25049,133.33424 624.39067,133.343936 L399.426581,133.343936 C388.566761,133.33424 378.14894,137.645666 370.469885,145.327713 C362.79083,153.00976 358.481082,163.431639 358.490792,174.29569 L358.490792,348.340572 C358.481082,359.204622 362.79083,369.626501 370.469885,377.308548 C378.14894,384.990595 388.566761,389.302022 399.426581,389.292309 L406.919292,389.292309 L294.674821,583.813059 L174.279742,583.813059 C163.419922,583.803346 153.002102,588.114772 145.323046,595.796819 C137.643991,603.478866 133.334243,613.900745 133.343936,624.764796 L133.343936,798.809678 C133.334243,809.673729 137.643991,820.095608 145.323046,827.777655 C153.002102,835.459702 163.419922,839.771128 174.279742,839.761431 L399.426581,839.761431 C410.2864,839.771128 420.704221,835.459702 428.383276,827.777655 C436.062331,820.095608 440.372079,809.673729 440.362369,798.809678 L440.362369,624.764796 C440.372079,613.900745 436.062331,603.478866 428.383276,595.796819 C420.704221,588.114772 410.2864,583.803346 399.426581,583.813059 L365.544905,583.813059 L477.825926,389.292309 L546.174074,389.292309 L658.418545,583.813059 L624.573419,583.813059 C613.7136,583.803346 603.295779,588.114772 595.616724,595.796819 C587.937669,603.478866 583.627921,613.900745 583.637631,624.764796 L583.637631,798.809678 C583.627921,809.673729 587.937669,820.095608 595.616724,827.777655 C603.295779,835.459702 613.7136,839.771128 624.573419,839.761431 L849.720258,839.761431 C860.580078,839.771128 870.997898,835.459702 878.676954,827.777655 C886.356009,820.095608 890.665757,809.673729 890.656064,798.809678 L890.656064,624.764796 C890.665757,613.900745 886.356009,603.478866 878.676954,595.796819 C870.997898,588.114772 860.580078,583.803346 849.720258,583.813059 L849.720258,583.813059 Z" id="路径" fill="#FFFFFF"></path>
        </g>
    </g>
</svg>

<svg xmlns="http://www.w3.org/2000/svg" width="1024" height="1025"><g fill="none" fill-rule="nonzero"><path fill="#F08705" d="M0 0h1024v1025L0 1024z"/><path fill="#DF6C0C" d="M543.357 262.116 653.833 145.56 1024 515.419v467.62a40.92 40.92 0 0 1-11.99 28.974A40.94 40.94 0 0 1 983.03 1024H340.514L143.523 826.251l399.834-564.135Z"/><path fill="#FFF" d="M849.72 583.813H729.325l-112.244-194.52h7.31a40.891 40.891 0 0 0 28.956-11.984 40.923 40.923 0 0 0 11.98-28.968V174.296a40.923 40.923 0 0 0-11.98-28.968 40.891 40.891 0 0 0-28.956-11.984H399.427a40.891 40.891 0 0 0-28.957 11.984 40.923 40.923 0 0 0-11.98 28.968V348.34a40.923 40.923 0 0 0 11.98 28.968 40.891 40.891 0 0 0 28.957 11.983h7.492L294.675 583.813H174.28a40.891 40.891 0 0 0-28.957 11.984 40.923 40.923 0 0 0-11.98 28.968V798.81a40.923 40.923 0 0 0 11.98 28.968 40.891 40.891 0 0 0 28.957 11.983h225.147a40.891 40.891 0 0 0 28.956-11.983 40.923 40.923 0 0 0 11.98-28.968V624.765a40.923 40.923 0 0 0-11.98-28.968 40.891 40.891 0 0 0-28.956-11.984h-33.882l112.28-194.52h68.35l112.244 194.52h-33.846a40.891 40.891 0 0 0-28.956 11.984 40.923 40.923 0 0 0-11.98 28.968V798.81a40.923 40.923 0 0 0 11.98 28.968 40.891 40.891 0 0 0 28.956 11.983H849.72a40.891 40.891 0 0 0 28.957-11.983 40.923 40.923 0 0 0 11.98-28.968V624.765a40.923 40.923 0 0 0-11.98-28.968 40.891 40.891 0 0 0-28.957-11.984"/></g></svg>
